ui/src/assets/icons/item-categories/item_cat_ore.svg

<svg xmlns="http://www.w3.org/2000/svg" viewBox="0 0 512 512"><path d="M0 0h512v512H0z"/><path fill="#fff" d="M228.813 23 68.75 72.28 39.5 182.095l47.53-21.22 10.44-4.655 2.5 11.155 8.75 39.125 6.405 28.53-21.75-19.53-15.72-14.125-28.218 32.344 140.657 136 9.656-40.69 7.53-31.874 10.407 31.063 54.72 163.592 159.936-26.31 45.75-202.938-84.563-148.718L228.814 23zm-57.688 49.875-27.813 39.906-3.25 73.44-27.187-88.94 58.25-24.405zm17.844 93.406 113.124 155.25L407 355.407l-107.375-.844-110.656-128v-60.28zM79.312 330.25l140.125 153.125-5.563-65.875-134.563-87.25z"/></svg>

<svg xmlns="http://www.w3.org/2000/svg" viewBox="0 0 512 512"><path d="M0 0h512v512H0z"/>
    <!-- Main crystal body (outer outline) -->
    <path fill="#fff" data-channel="body" d="M228.813 23L68.75 72.28 39.5 182.095 87.03 160.875 97.47 156.22 99.97 167.375 108.72 206.5 115.125 235.03 93.375 215.5 77.655 201.375 49.437 233.719 190.094 369.719 199.75 329.029 207.28 297.155 217.687 328.218 272.407 491.81 432.343 465.5 478.093 262.562 393.53 113.844 228.814 23Z"/>
    <!-- Left facet (dark shadow) -->
    <path fill="#fff" data-channel="facet_dark" d="M171.125 72.875L143.312 112.781 140.062 186.221 112.875 97.281 171.125 72.876Z"/>
    <!-- Center facet (highlight) -->
    <path fill="#fff" data-channel="facet_light" d="M188.969 166.281L302.093 321.531 407 355.407 299.625 354.563 188.969 226.563V166.283Z"/>
    <!-- Bottom facet (mid-tone) -->
    <path fill="#fff" data-channel="facet_mid" d="M79.312 330.25L219.437 483.375 213.874 417.5 79.311 330.25Z"/></svg>
